!!!COM: Mozart, Wolfgang Amadeus
!!!CDT: 1756/01/27/-1791/12/05/
!!!CNT: German
!!!OTL: Piano Sonata No. 1 in C major
!!!SCT1: K<sup>1</sup> 279
!!!SCT2: K<sup>6</sup> 189d
!!!OMV: 3
!!!OMD: Allegro
!!!ODT: 1774///
**kern	**dynam	**kern	**dynam
*staff2	*	*staff1	*staff1/2
*>[A,A,B,B]	*	*>[A,A,B,B]	*>[A,A,B,B]
*>norep[A,B]	*	*>norep[A,B]	*>norep[A,B]
*>A	*	*>A	*>A
*clefF4	*	*clefG2	*clefG2
*k[]	*	*k[]	*k[]
*C:	*	*C:	*C:
*M2/4	*	*M2/4	*M2/4
*MM132	*	*MM132	*MM132
8r	.	8g	p
*clefG2	*	*	*
=1	=1	=1	=1
8r	.	2cc	.
(8e 8gL	.	.	.
8d 8f	.	.	.
8c) 8eJ	.	.	.
=2	=2	=2	=2
8r	.	2ff	.
(8B 8dL	.	.	.
8A 8c	.	.	.
8G) 8BJ	.	.	.
=3	=3	=3	=3
(8cL	.	(16eeLL	.
.	.	16gg	.
8cc	.	16ff	.
.	.	16eeJJ	.
8f	.	16aaLL	.
.	.	16ff	.
8f#J	.	16dd	.
.	.	16ccJJ	.
=4	=4	=4	=4
4g')	.	16bLL	.
.	.	16cc	.
.	.	16dd	.
.	.	16bJJ	.
4G	.	16aLL	.
.	.	16g	.
.	.	16f#	.
.	.	16gJJ)	.
*clefF4	*	*	*
=5	=5	=5	=5
8r	.	2c	f
8E (8GL	.	.	.
8D 8Fn	.	.	.
8C 8EJ)	.	.	.
=6	=6	=6	=6
8r	.	2f	.
(8BB 8DL	.	.	.
8AA 8C	.	.	.
8GG) 8BBJ	.	.	.
=7	=7	=7	=7
8CL	.	(16eLL	.
.	.	16g	.
8E	.	16cc	.
.	.	16gJJ	.
8D	.	16f#LL	.
.	.	16g	.
8BBJ	.	16fn	.
.	.	16gJJ	.
=8	=8	=8	=8
8CL	.	16eLL	.
.	.	16g	.
8E	.	16cc	.
.	.	16gJJ	.
8D	.	16f#LL	.
.	.	16g	.
8BBJ	.	16fn	.
.	.	16gJJ	.
=9	=9	=9	=9
8CL	.	16eLL	.
.	.	16g	.
8E	.	16c	.
.	.	16eJJ	.
8F	.	16dLL	.
.	.	16f	.
8GJ	.	16B	.
.	.	16dJJ	.
=10	=10	=10	=10
8CL	.	4c)	.
8GGJ	.	.	.
4CC	.	8r	.
.	.	8gT	.
.	.	16f#qLL	.
.	.	16gqJJ	.
*clefG2	*	*	*
=11	=11	=11	=11
4c 4e 4g	.	(16ccLL	.
.	.	16g	.
.	.	16ee	.
.	.	16ccJJ	.
4r	.	16ggLL	.
.	.	16ff#	.
.	.	16gg	.
.	.	16eeJJ)	.
=12	=12	=12	=12
4B 4d 4g	.	(16eeLL	.
.	.	16dd	.
.	.	16cc#	.
.	.	16ddJJ)	.
4r	.	(16cc#LL	.
.	.	16dd)	.
.	.	(16cc#	.
.	.	16ddJJ)	.
=13	=13	=13	=13
4B 4d 4g	.	(16ggLL	.
.	.	16aa	.
.	.	16bb)	.
.	.	16ff#'JJ	.
4r	.	(16ggLL	.
.	.	16dd)	.
.	.	(16ee	.
.	.	16bJJ)	.
=14	=14	=14	=14
4A 4c 4f#	.	(16ddLL	.
.	.	16ccn	.
.	.	16b	.
.	.	16ccJJ)	.
4r	.	(16bLL	.
.	.	16cc)	.
.	.	(16b	.
.	.	16ccJJ)	.
=15	=15	=15	=15
2d 2f#	.	(16aaLL	.
.	.	16bb	.
.	.	16ccc)	.
.	.	16aa'JJ	.
.	.	(16ff#LL	.
.	.	16ee	.
.	.	16dd	.
.	.	16ccJJ)	.
=16	=16	=16	=16
4e 4g	.	(16ccLL	.
.	.	16b	.
.	.	16a#	.
.	.	16bJJ	.
4d 4f#	.	16ccLL	.
.	.	16b	.
.	.	16a#	.
.	.	16bJJ	.
=17	=17	=17	=17
4.c 4.e	.	16anLL	.
.	.	16cc	.
.	.	16ee)	.
.	.	16dd'JJ	.
.	.	(16ccLL<	.
.	.	16b	.
8c# 8e	.	16a	.
.	.	16gJJ	.
=18	=18	=18	=18
16d'LL	.	8f#)	.
(16dd	.	.	.
16cc#	.	8r	.
16ddJJ	.	.	.
16ccnLL	.	8ff#'L	.
16dd	.	.	.
16b	.	8gg'J	.
16ddJJ	.	.	.
=19	=19	=19	=19
16aLL	.	8aa'L	.
16dd	.	.	.
16g	.	8bb'J	.
16ddJJ	.	.	.
16f#LL<	.	8aa' 8ccc'L	.
16dd	.	.	.
16g	.	8gg' 8bb'J	.
16ddJJ	.	.	.
=20	=20	=20	=20
16d')	.	8ff# 8aa	.
*clefF4	*	*	*
(16dLL	.	.	.
16c#	.	8r	.
16dJJ	.	.	.
16cnLL	.	8f#'L	.
16d	.	.	.
16B	.	(8gTJ	.
16dJJ	.	.	.
.	.	16f#qLL	.
.	.	16gqJJ	.
=21	=21	=21	=21
16ALL	.	8a'L)	.
16d	.	.	.
16G	.	(8btJ	.
16dJJ	.	.	.
.	.	16aqLL	.
.	.	16bqJJ	.
16F#LL	.	8a') 8cc'L	.
16d	.	.	.
16G	.	8g' 8b'J	.
16dJJ	.	.	.
=22	=22	=22	=22
4D)	.	4f# 4a	.
4r	.	8r	.
.	.	8dd'	p
=23	=23	=23	=23
2r	.	8dd'L	.
.	.	8dd'	.
.	.	8dd'	.
.	.	8dd'J	.
*clefG2	*	*	*
=24	=24	=24	=24
*^	*	*	*
8r	8ryy	.	(4.gg	.
(8bL	4e	.	.	.
8cc#	.	.	.	.
8ddJ)	8d	.	8ff#)	.
*v	*v	*	*	*
=25	=25	=25	=25
2r	.	8b'L	.
.	.	8b'	.
.	.	8b'	.
.	.	8b'J	.
=26	=26	=26	=26
*^	*	*	*
8r	8ryy	.	(4.ee	.
(8gL	4cn	.	.	.
8a	.	.	.	.
8bJ)	8B	.	8dd)	.
*v	*v	*	*	*
=27	=27	=27	=27
2r	.	8g'L	.
.	.	8g'	.
.	.	8g'	.
.	.	8g'J	.
=28	=28	=28	=28
*^	*	*	*
8r	8ryy	.	4cc	.
(8eL	4A	.	.	.
8f#	.	.	8r	.
8gJ)	8G	.	(8b	.
*v	*v	*	*	*
=29	=29	=29	=29
8r	.	4ee)	.
(8c	.	.	.
4c#)	.	8r	.
.	.	(8g	.
=30	=30	=30	=30
8d	.	4f#)	.
(8cc#	.	.	.
4dd)	.	8r	.
.	.	(8g 8b-	pp
=31	=31	=31	=31
8r	.	4f#) 4a	.
(8c#	.	.	.
*	*	*clefF4	*clefF4
4d)	.	8r	.
.	.	8G (8B-	.
*clefF4	*	*	*
=32	=32	=32	=32
8r	.	4F# 4A)	.
(8DD# 8D#L	.	.	f
8EE 8E	.	4r	.
8FF#) 8F#J	.	.	.
=33	=33	=33	=33
8GG 8G	.	2r	.
(8BBB 8BBL	.	.	.
8CC 8C	.	.	.
8DDn) 8DnJ	.	.	.
=34	=34	=34	=34
8EE 8E	.	8r	.
*clefG2	*	*clefG2	*clefG2
(8eeL	.	(16ggLL	.
.	.	16cccJJ	.
8dd	.	16bbLL	.
.	.	16ff#	.
8ccJ	.	16ee	.
.	.	16aaJJ	.
=35	=35	=35	=35
8bL	.	16ggLL	.
.	.	16dd	.
8a	.	16cc	.
.	.	16ff#JJ	.
8g	.	16eeLL	.
.	.	16b	.
8f#J	.	16a	.
.	.	16ddJJ	.
=36	=36	=36	=36
8eL	.	16ccLL	.
.	.	16g	.
8d	.	16f#	.
.	.	16bJJ	.
8c	.	16aLL	.
.	.	16e	.
8BJ)	.	16d	.
.	.	16gJJ)	.
*clefF4	*	*	*
=37	=37	=37	=37
4C	.	8r	.
.	.	8cc (8eeL	.
4D	.	8b 8dd)	.
.	.	8f# 8aJ	.
=38	=38	=38	=38
!LO:TX:i:t=legato	!	!	!
16GGLL	.	4g	.
16G	.	.	.
16F#	.	.	.
16GJJ	.	.	.
.	.	(>32cqq	.
16ELL	.	8cc)	p
16G	.	.	.
16F#	.	8r	.
16GJJ	.	.	.
=39	=39	=39	=39
.	.	(>32Bqq	.
16DLL	.	8b)	.
16G	.	.	.
16F#	.	8r	.
16GJJ	.	.	.
.	.	(32Aqq	.
16CLL	.	8a)	.
16G	.	.	.
16F#	.	8r	.
16GJJ	.	.	.
=40	=40	=40	=40
.	.	(32Gqq	.
16BBLL	.	8g)	.
16G	.	.	.
16F#	.	8r	.
16GJJ	.	.	.
.	.	(>32cqq	.
16ELL	.	8cc'L)	f
16G	.	.	.
16F#	.	8cc'J	.
16GJJ	.	.	.
=41	=41	=41	=41
.	.	(>32Bqq	.
16DLL	.	8b'L)	.
16G	.	.	.
16F#	.	8b'J	.
16GJJ	.	.	.
.	.	(32Aqq	.
16CLL	.	8a'L)	.
16G	.	.	.
16F#	.	8a'J	.
16GJJ	.	.	.
=42	=42	=42	=42
.	.	(>32dqq	.
16BBLL	.	8dd')	.
16G	.	.	.
16F#	.	8r	.
16GJJ	.	.	.
*clefG2	*	*	*
.	.	(32bqq	.
16eLL	.	8cc'L)	p
16g	.	.	.
16f#	.	8cc'J	.
16gJJ	.	.	.
=43	=43	=43	=43
.	.	(32a#qq	.
16dLL	.	8b'L)	.
16g	.	.	.
16f#	.	8bJ	.
16gJJ	.	.	.
.	.	(32g#qq	.
16cLL	.	8an'L)	.
16g	.	.	.
16f#	.	8a'J	.
16gJJ	.	.	.
=44	=44	=44	=44
.	.	(32cc#qq	.
16BLL	.	8dd')	.
16g	.	.	.
16f#	.	8r	.
16gJJ	.	.	.
4c 4e 4a	.	(16ccnLL	f
.	.	16dd	.
.	.	16ee	.
.	.	16ccJJ	.
=45	=45	=45	=45
4d 4g	.	16bLL	.
.	.	16cc	.
.	.	16dd	.
.	.	16bJJ	.
4d 4f#	.	16aLL	.
.	.	16b	.
.	.	16cc	.
.	.	16aJJ	.
=46	=46	=46	=46
4G 4g	.	16g'LL)	.
.	.	(16gg	.
.	.	16bb	.
.	.	16aaJJ	.
4r	.	16ggLL	.
.	.	16ff#	.
.	.	16ee	.
.	.	16ddJJ	.
=47	=47	=47	=47
(4e 4g	.	4cc#	f
8f#) 8aL	.	8ccnL)	.
8g'J	.	8b'J	p
=48	=48	=48	=48
8c' 8e'	.	8a'	.
8r	.	8r	.
16cLL	.	(16eeLL	f
16a	.	16ccc	.
16g#	.	16bb	.
16aJJ	.	16cccJJ	.
=49	=49	=49	=49
16dLL	.	16ddLL	.
16gn	.	16bb	.
16f#	.	16aa	.
16gJJ	.	16bbJJ	.
16dLL	.	16ddLL	.
16f#	.	16aa	.
16e	.	16gg	.
16f#JJ	.	16aaJJ	.
=50	=50	=50	=50
4g	.	16ggLL)	.
.	.	(16g	p
.	.	16b	.
.	.	16aJJ	.
4r	.	16gLL	.
.	.	16f#	.
.	.	16e	.
.	.	16dJJ	.
*clefF4	*	*	*
=51	=51	=51	=51
4E (4G	.	4c#	f
8F# 8AL)	.	8cnL)	.
8G'J	.	8B'J	p
=52	=52	=52	=52
8C' 8E'	.	8A'	.
8r	.	8r	.
16CLL	.	(16eLL	f
16A	.	16cc	.
16G#	.	16b	.
16AJJ	.	16ccJJ	.
=53	=53	=53	=53
16DLL	.	16dLL	.
16Gn	.	16b	.
16F#	.	16a	.
16GJJ	.	16bJJ	.
16DLL	.	16dLL	.
16F#	.	16a	.
16E	.	16g	.
16F#JJ	.	16aJJ	.
=54	=54	=54	=54
4G	.	16gLL	.
.	.	16d	.
.	.	16g	.
.	.	16bJJ	.
4D 4A	.	16ddLL	.
.	.	16cc	.
.	.	16a	.
.	.	16f#JJ	.
=55	=55	=55	=55
4G 4B	.	16gLL	.
.	.	16gg	.
.	.	16dd	.
.	.	16bJJ	.
4D 4A 4c	.	16ddLL<	.
.	.	16cc	.
.	.	16a	.
.	.	16f#JJ	.
=56	=56	=56	=56
4G 4B	.	4g)	.
8r	.	8r	.
=:|!|:	=:|!|:	=:|!|:	=:|!|:
*>B	*	*>B	*>B
8r	.	8dd'	p
=57	=57	=57	=57
2r	.	8dd'L	.
.	.	8dd'	.
.	.	8dd'	.
.	.	8dd'J	.
*clefG2	*	*	*
=58	=58	=58	=58
8r	.	(4.gg	.
(8B 8dL	.	.	.
8c# 8b	.	.	.
8d) 8aJ	.	8ff#)	.
=59	=59	=59	=59
2r	.	8b'L	.
.	.	8b'	.
.	.	8b'	.
.	.	8b'J	.
=60	=60	=60	=60
8r	.	(4.ee	.
(8G 8BL	.	.	.
8A# 8g	.	.	.
8B) 8f#J	.	8dd)	.
=61	=61	=61	=61
4B 4fn	.	8g'L	.
.	.	8g'	.
4cn 4e	.	8g'	.
.	.	8g'J	.
=62	=62	=62	=62
*	*	*^	*
4A	.	(4.cc	8r	.
.	.	.	(8eL	.
8r	.	.	8a	.
8e'	.	8b)	8g#J)	.
*	*	*v	*v	*
=63	=63	=63	=63
8e'L	.	2r	.
8e'	.	.	.
8e'	.	.	.
8e'J	.	.	.
=64	=64	=64	=64
(4.a	.	8r	.
.	.	8cc (8eeL	.
.	.	8dd# 8ccc	.
8gn)	.	8ee 8bbJ)	.
=65	=65	=65	=65
8c'L	.	2r	.
8c'	.	.	.
8c'	.	.	.
8c'J	.	.	.
=66	=66	=66	=66
(4.fn	.	8r	.
.	.	8a (8ccL	.
.	.	8b 8aa	.
8e)	.	8cc 8ggJ)	.
=67	=67	=67	=67
8A'L	.	2r	.
8A'	.	.	.
8A'	.	.	.
8A'J	.	.	.
=68	=68	=68	=68
(4.d	.	8r	.
.	.	8fn (8aL	.
.	.	8g# 8ffn	.
8c)	.	8a 8eeJ)	.
*clefF4	*	*	*
=69	=69	=69	=69
4F 4f	.	8r	f
.	.	16aa'LL	.
.	.	16dd#'JJ	.
8r	.	(8cccL	.
8FF 8F	.	8aaJ)	.
=70	=70	=70	=70
4EE 4E	.	8r	.
.	.	16gg#'LL	.
.	.	16ee'JJ	.
8r	.	(8bbL	.
8E 8e	.	8gg#J)	.
=71	=71	=71	=71
4F 4f	.	8r	.
.	.	16aa'LL	.
.	.	16dd#'JJ	.
8r	.	8ccc'L	.
8FF 8F	.	8aa'J	.
=72	=72	=72	=72
*^	*	*	*
8EE 8E	8ryy	.	8gg#	.
*clefG2	*	*	*	*
(>8aL	4ryy	.	(16cccLL	.
.	.	.	16eeJJ	.
8g#	.	.	16bbLL	.
.	.	.	16ee	.
8ccJ)	8e	.	16aa	.
.	.	.	16eeJJ	.
=73	=73	=73	=73	=73
(8bL	4e	.	16gg#LL	.
.	.	.	16ee	.
8a	.	.	16ccc	.
.	.	.	16eeJJ	.
8g#	8r	.	16bbLL	.
.	.	.	16ee	.
8ccJ)	8e	.	16aa	.
.	.	.	16eeJJ	.
=74	=74	=74	=74	=74
8bL	2e	.	16gg#LL	.
.	.	.	16ee	.
8cc	.	.	16aa	.
.	.	.	16eeJJ	.
8g#	.	.	16bbLL	.
.	.	.	16ee	.
8aJ	.	.	16ccc	.
.	.	.	16eeJJ	.
=75	=75	=75	=75	=75
4g#	4e	.	4bb)	.
*v	*v	*	*	*
*clefF4	*	*	*
(>32d#qq	.	(32dd#qq	.
4e)	.	4ee)	.
=76	=76	=76	=76
4EE 4E	.	4e	.
8r;	.	8r;	.
8r	.	8B	p
=77	=77	=77	=77
8r	.	2e	.
8Gn (8BL	.	.	.
8F# 8A	.	.	.
8E 8GJ)	.	.	.
=78	=78	=78	=78
8r	.	2a	.
8D# (8F#L	.	.	.
8C# 8E	.	.	.
8BB 8D#J)	.	.	.
=79	=79	=79	=79
2EE 2E	.	8gL	f
.	.	(16b-L	.
.	.	16aJJ	.
.	.	16gLL	.
.	.	16fn	.
.	.	16e	.
.	.	16dnJJ	.
=80	=80	=80	=80
2GG 2G	.	8c#L)	.
.	.	(16eL	.
.	.	16dJJ	.
.	.	16c#LL	.
.	.	16A	.
.	.	16Bn	.
.	.	16c#JJ	.
=81	=81	=81	=81
8FFn 8Fn	.	2d)	.
8F (8AL	.	.	p
8E 8G	.	.	.
8D 8FJ)	.	.	.
=82	=82	=82	=82
8r	.	2g	.
(8C# 8EL	.	.	.
8BB 8D	.	.	.
8AA) 8C#J	.	.	.
=83	=83	=83	=83
2DD 2D	.	8fL	f
.	.	16aL	.
.	.	(16gJJ	.
.	.	16fLL	.
.	.	16e	.
.	.	16d	.
.	.	16cnJJ	.
=84	=84	=84	=84
2FF 2F	.	8BL)	.
.	.	(16dL	.
.	.	16cJJ	.
.	.	16BLL	.
.	.	16G	.
.	.	16A	.
.	.	16BJJ	.
=85	=85	=85	=85
8EE 8E	.	2c)	.
8E (8GL	.	.	.
8D 8F	.	.	.
8C 8EJ)	.	.	.
=86	=86	=86	=86
*	*	*^	*
8r	.	4r	2f	.
(8BB 8DL	.	.	.	.
8AA 8C	.	8r	.	.
8GG) 8BBJ	.	8g	.	.
*clefG2	*	*	*	*
*	*	*v	*v	*
=87	=87	=87	=87
.	.	(32eqq	.
8r	.	2cc)	p
(8e 8gL	.	.	.
8d 8f	.	.	.
8c) 8eJ	.	.	.
=88	=88	=88	=88
.	.	(32gqq	.
8r	.	2ff)	.
(8B 8dL	.	.	.
8A 8c	.	.	.
8G) 8BJ	.	.	.
=89	=89	=89	=89
(8cL	.	(16eeLL	.
.	.	16gg	.
8cc	.	16ff	.
.	.	16eeJJ	.
8f	.	16aaLL	.
.	.	16ff	.
8f#J	.	16dd	.
.	.	16ccJJ	.
=90	=90	=90	=90
4g')	.	16bLL	.
.	.	16cc	.
.	.	16dd	.
.	.	16bJJ	.
4G	.	16aLL	.
.	.	16g	.
.	.	16f#	.
.	.	16gJJ)	.
*clefF4	*	*	*
=91	=91	=91	=91
2CC 2C	.	8r	f
.	.	8ee (8ggL	.
.	.	8dd 8ffn	.
.	.	8cc 8eeJ)	.
=92	=92	=92	=92
2FF 2F	.	8r	.
.	.	8b (8ddL	.
.	.	8a 8cc	.
.	.	8g 8bJ)	.
=93	=93	=93	=93
(16ELL	.	(8ccL	.
16G	.	.	.
16c	.	8ee	.
16GJJ	.	.	.
16F#LL	.	8dd	.
16G	.	.	.
16Fn	.	8bJ	.
16GJJ	.	.	.
=94	=94	=94	=94
8EL)	.	16ccLL>	.
.	.	16ee	.
8E	.	16cc	.
.	.	16gJJ	.
8D	.	16f#LL	.
.	.	16g	.
8BBJ	.	16fn	.
.	.	16gJJ	.
=95	=95	=95	=95
8CL	.	16eLL	.
.	.	16g	.
8E	.	16c	.
.	.	16eJJ	.
8F	.	16dLL	.
.	.	16f	.
8GJ	.	16B	.
.	.	16dJJ	.
=96	=96	=96	=96
8CL	.	4c)	.
8GGJ	.	.	.
4CC	.	8r	.
.	.	8ccT	.
.	.	16bqLL	.
.	.	16ccqJJ	.
*clefG2	*	*	*
=97	=97	=97	=97
4c 4g 4b-	.	(16eeLL	.
.	.	16cc	.
.	.	16gg	.
.	.	16eeJJ	.
4r	.	16bb-LL	.
.	.	16aa	.
.	.	16bb-	.
.	.	16ggJJ)	.
=98	=98	=98	=98
4c 4f 4a	.	(16ggLL	.
.	.	16ff	.
.	.	16ee	.
.	.	16ffJJ)	.
4r	.	(16eeLL	.
.	.	16ff)	.
.	.	(16ee	.
.	.	16ffJJ)	.
=99	=99	=99	=99
4c 4f 4a	.	(16ffLL	.
.	.	16cc	.
.	.	16aa	.
.	.	16ffJJ	.
4r	.	16cccLL	.
.	.	16bbn	.
.	.	16ccc	.
.	.	16aaJJ)	.
=100	=100	=100	=100
4c 4e 4g	.	(16aaLL	.
.	.	16gg	.
.	.	16ff#	.
.	.	16ggJJ)	.
4r	.	(16ff#LL	.
.	.	16gg)	.
.	.	(16ff#	.
.	.	16ggJJ)	.
=101	=101	=101	=101
4e 4g	.	(16cccLL	.
.	.	16bb	.
.	.	16aa	.
.	.	16ggJJ	.
4r	.	16ffnLL	.
.	.	16ee	.
.	.	16dd	.
.	.	16ccJJ	.
=102	=102	=102	=102
4f 4a	.	16eeLL	.
.	.	16dd	.
.	.	16cc#	.
.	.	16ddJJ	.
4r	.	16eeLL	.
.	.	16dd	.
.	.	16cc#	.
.	.	16ddJJ	.
=103	=103	=103	=103
4.f 4.a	.	16ddLL	.
.	.	16ff	.
.	.	16aa)	.
.	.	16gg'JJ	.
.	.	(16ffLL	.
.	.	16ee	.
8f# 8a	.	16dd	.
.	.	16ccnJJ	.
=104	=104	=104	=104
16G'LL	.	8b)	.
(16g	.	.	.
16f#	.	8r	.
16gJJ	.	.	.
16fnLL	.	8b'L	.
16g	.	.	.
16e	.	8cc'J	.
16gJJ	.	.	.
=105	=105	=105	=105
16dLL	.	8dd'L	.
16g	.	.	.
16c	.	8ee'J	.
16gJJ	.	.	.
16BLL	.	8dd' 8ff'L	.
16g	.	.	.
16c	.	8cc' 8ee'J	.
16gJJ	.	.	.
=106	=106	=106	=106
16G')	.	8b 8dd	.
*clefF4	*	*	*
(16GLL	.	.	.
16F#	.	8r	.
16GJJ	.	.	.
16FnLL	.	8B'L	.
16G	.	.	.
16E	.	8cTJ	.
16GJJ	.	.	.
.	.	16BqLL	.
.	.	16cqJJ	.
=107	=107	=107	=107
16DLL	.	8d'L	.
16G	.	.	.
16C	.	8etJ	.
16GJJ	.	.	.
.	.	16dqLL	.
.	.	16eqJJ	.
16BBLL	.	8d 8fL	.
16G	.	.	.
16C	.	8c 8eJ	.
16GJJ	.	.	.
=108	=108	=108	=108
4GG)	.	4B 4d	.
4r	.	8r	.
.	.	8gg'	p
=109	=109	=109	=109
2r	.	8gg'L	.
.	.	8gg'	.
.	.	8gg'	.
.	.	8gg'J	.
*clefG2	*	*	*
=110	=110	=110	=110
*^	*	*	*
8r	8ryy	.	(4.ccc	.
(8eeL	4a	.	.	.
8ff#	.	.	.	.
8ggJ)	8g	.	8bb)	.
*v	*v	*	*	*
=111	=111	=111	=111
2r	.	8ee'L	.
.	.	8ee'	.
.	.	8ee'	.
.	.	8ee'J	.
=112	=112	=112	=112
*^	*	*	*
8r	8ryy	.	(4.aa	.
(8ccL	4fn	.	.	.
8dd	.	.	.	.
8eeJ)	8e	.	8gg)	.
*v	*v	*	*	*
=113	=113	=113	=113
2r	.	8cc'L	.
.	.	8cc'	.
.	.	8cc'	.
.	.	8cc'J	.
=114	=114	=114	=114
*^	*	*	*
8r	8ryy	.	4ff	.
(8aL	4d	.	.	.
8b	.	.	8r	.
8ccJ)	8c	.	(8ee	.
*v	*v	*	*	*
=115	=115	=115	=115
8r	.	4aa)	.
(8f	.	.	.
4f#)	.	8r	.
.	.	(8cc	.
=116	=116	=116	=116
8g	.	4b)	.
(8ff#	.	.	.
4gg)	.	8r	.
.	.	8cc (8ee-	pp
=117	=117	=117	=117
8r	.	4b 4dd)	.
(8f#	.	.	.
4g)	.	8r	.
.	.	(8c 8e-	.
*clefF4	*	*	*
=118	=118	=118	=118
8r	.	4B) 4d	.
8GG# (8G#L	.	.	f
8AA 8A	.	4r	.
8BB 8BJ)	.	.	.
=119	=119	=119	=119
8C 8c	.	2r	.
(8EE 8EL	.	.	.
8FF 8F	.	.	.
8GGn) 8GnJ	.	.	.
=120	=120	=120	=120
8AA 8A	.	8r	.
*clefG2	*	*	*
(8aL	.	(16ccLL	.
.	.	16ffJJ	.
8g	.	16eeLL	.
.	.	16b	.
8fJ	.	16a	.
.	.	16ddJJ	.
=121	=121	=121	=121
8eL	.	16ccLL	.
.	.	16g	.
8d	.	16f	.
.	.	16bJJ	.
8c	.	16aLL	.
.	.	16e	.
8BJ	.	16d	.
.	.	16gJJ	.
*clefF4	*	*	*
=122	=122	=122	=122
8AL	.	16fLL	.
.	.	16c	.
8G	.	16B	.
.	.	16eJJ	.
8F	.	16dLL	.
.	.	16A	.
8EJ)	.	16G	.
.	.	16cJJ)	.
=123	=123	=123	=123
4F	.	8r	.
.	.	8ff (8aaL	.
4G	.	8ee 8gg)	.
.	.	8b 8ddJ	.
=124	=124	=124	=124
16C'LL	.	4e 4cc	.
(16c	.	.	.
16B	.	.	.
16cJJ	.	.	.
.	.	(>32fqq	.
16ALL	.	8ff)	p
16c	.	.	.
16B	.	8r	.
16cJJ)	.	.	.
=125	=125	=125	=125
.	.	(>32eqq	.
(16GLL	.	8ee)	.
16c	.	.	.
16B	.	8r	.
16cJJ	.	.	.
.	.	(>32dqq	.
16FLL	.	8dd)	.
16c	.	.	.
16B	.	8r	.
16cJJ)	.	.	.
=126	=126	=126	=126
.	.	(>32cqq	.
(16ELL	.	8cc)	.
16c	.	.	.
16B	.	8r	.
16cJJ	.	.	.
.	.	(>32fqq	.
16ALL	.	8ff'L)	f
16c	.	.	.
16B	.	8ff'J	.
16cJJ)	.	.	.
=127	=127	=127	=127
.	.	(>32eqq	.
(16GLL	.	8ee'L)	.
16c	.	.	.
16B	.	8ee'J	.
16cJJ	.	.	.
.	.	(>32dq	.
16FLL	.	8dd'L)	.
16c	.	.	.
16B	.	8dd'J	.
16cJJ)	.	.	.
=128	=128	=128	=128
.	.	(32gqq	.
(16ELL	.	8gg)	.
16c	.	.	.
16B	.	8r	.
16cJJ)	.	.	.
*clefG2	*	*	*
.	.	(32eeqq	.
(16aLL>	.	8ff'L)	p
16cc	.	.	.
16b	.	8ff'J	.
16ccJJ)	.	.	.
=129	=129	=129	=129
.	.	(32dd#qq	.
(16gLL>	.	8ee'L)	.
16cc	.	.	.
16b	.	8ee'J	.
16ccJJ	.	.	.
.	.	(32cc#qq	.
16fLL	.	8ddn'L)	.
16cc	.	.	.
16b	.	8dd'J	.
16ccJJ)	.	.	.
=130	=130	=130	=130
.	.	(32ff#qq	.
(16eLL	.	8gg)	.
16cc	.	.	.
16b	.	8r	.
16ccJJ)	.	.	.
4f 4a 4dd	.	(16ffnLL	f
.	.	16gg	.
.	.	16aa	.
.	.	16ffJJ	.
=131	=131	=131	=131
4g 4cc	.	16eeLL	.
.	.	16ff	.
.	.	16gg	.
.	.	16eeJJ	.
4g 4b	.	16ddLL	.
.	.	16ee	.
.	.	16ff	.
.	.	16ddJJ	.
=132	=132	=132	=132
8r	.	4cc)	p
(8ff#	.	.	.
4gg)	.	8r	.
.	.	8cc (8ee-	.
*clefF4	*	*	*
=133	=133	=133	=133
8r	.	4b 4dd)	f
(8F#	.	.	.
4G)	.	8r	.
.	.	(8c 8e-	.
=134	=134	=134	=134
8r	.	4B) 4d	.
(8FF#	.	.	.
4GG)	.	4r	.
=135	=135	=135	=135
2r	.	4r	.
.	.	8r	.
.	.	8gg'	p
=136	=136	=136	=136
2r	.	8gg'L	.
.	.	8gg'	.
.	.	8gg'	.
.	.	8gg'J	.
=137	=137	=137	=137
*	*	*^	*
2r	.	(4.ccc	8r	.
.	.	.	(8aaL	.
.	.	.	8ff#	.
.	.	8bb)	8ggJ)	.
=138	=138	=138	=138	=138
2r	.	(4.aa	8r	.
.	.	.	(8ffnL	.
.	.	.	8dd#	.
.	.	8gg)	8eeJ)	.
=139	=139	=139	=139	=139
4r	.	(4.ff	8r	.
.	.	.	(8ddnL	.
8r	.	.	8b	.
8GG' 8G'	f	8ee)	8ccJ)	.
*	*	*v	*v	*
=140	=140	=140	=140
8GG' 8G'L	.	2r	.
8GG' 8G'	.	.	.
8GG' 8G'	.	.	.
8GG' 8G'J	.	.	.
=141	=141	=141	=141
*	*	*^	*
4.C (4.c	.	8r	8r	.
.	.	(8eeL	4a	f
.	.	8ff#	.	.
8BB 8B)	.	8ggJ)	8g	.
*	*	*v	*v	*
=142	=142	=142	=142
8EE' 8E'L	.	2r	.
8EE' 8E'	.	.	.
8EE' 8E'	.	.	.
8EE' 8E'J	.	.	.
=143	=143	=143	=143
*	*	*^	*
(4.AA/ 4.A/	.	8r	8r	.
.	.	(8ccL	4f#	.
.	.	8dd#	.	.
8GG) 8G	.	8eeJ)	8e	.
*	*	*v	*v	*
=144	=144	=144	=144
8CC' 8C'L	.	2r	.
8CC' 8C'	.	.	.
8CC' 8C'	.	.	.
8CC' 8C'J	.	.	.
=145	=145	=145	=145
*	*	*^	*
(4.FFn 4.Fn	.	8r	8r	.
.	.	(8aL	4dn	.
.	.	8b	.	.
8EE) 8E	.	8ccJ)	8c	.
*	*	*v	*v	*
=146	=146	=146	=146
4FF 4F	.	8r	.
.	.	8ff (8aaL	.
4GG 4G	.	8ee 8gg)	.
.	.	8b 8ddJ	.
=147	=147	=147	=147
4C	.	16cc	.
.	.	(16cccLL	p
.	.	16eee	.
.	.	16dddJJ	.
4r	.	16cccLL	.
.	.	16bb	.
.	.	16aa	.
.	.	16ggJJ)	.
*clefG2	*	*	*
=148	=148	=148	=148
4a (4cc	.	(4ff#	f
8b 8ddL)	.	8ffnL)	.
8cc'J	.	8ee'J	p
=149	=149	=149	=149
8f' 8a'	.	8dd'	.
8r	.	8r	.
*clefF4	*	*	*
16FLL	.	(16aLL	f
16d	.	16ff	.
16c#	.	16ee	.
16dJJ	.	16ffJJ	.
=150	=150	=150	=150
16GLL	.	16gLL	.
16cn	.	16ee	.
16B	.	16dd	.
16cJJ	.	16eeJJ	.
16GLL	.	16gLL	.
16B	.	16dd	.
16A	.	16cc	.
16BJJ	.	16ddJJ	.
=151	=151	=151	=151
4C 4c	.	16ccLL)	.
.	.	(16cc	.
.	.	16ee	.
.	.	16ddJJ	.
4r	.	16ccLL	.
.	.	16b	.
.	.	16a	.
.	.	16gJJ	.
=152	=152	=152	=152
4A (4c	.	4f#	f
8B 8dL)	.	8fnL)	.
8c'J	.	8e'J	p
=153	=153	=153	=153
8F' 8A'	.	8d'	.
8r	.	8r	.
(16FFLL	.	(16ALL	f
16D	.	16f	.
16C#	.	16e	.
16DJJ	.	16fJJ	.
=154	=154	=154	=154
16GGLL	.	16GLL	.
16Cn	.	16e	.
16BB	.	16d	.
16CJJ	.	16eJJ	.
16GGLL	.	16GLL	.
16BB	.	16d	.
16AA	.	16c	.
16BBJJ	.	16dJJ	.
=155	=155	=155	=155
4C)	.	16cLL	.
.	.	16G	.
.	.	16c	.
.	.	16eJJ	.
4GG 4D	.	16gLL	.
.	.	16f	.
.	.	16d	.
.	.	16BJJ	.
=156	=156	=156	=156
4C 4E	.	16cLL)	.
.	.	(>16g	.
.	.	16cc	.
.	.	16eeJJ	.
4G 4d	.	16ggLL	.
.	.	16ff	.
.	.	16dd	.
.	.	16bJJ	.
=157	=157	=157	=157
4c 4e	.	4cc)	.
4GG 4G	.	4dd: 4ff: 4gg: 4bb:	.
=158	=158	=158	=158
4CC 4C	.	4cc: 4ee: 4gg: 4ccc:	.
8r	.	8r	.
=:|!	=:|!	=:|!	=:|!
*-	*-	*-	*-
!!!RDF**kern: > = above
!!!RDF**kern: < = below
!!!YOR: Alte Mozart-Ausgabe, Band 20, Breitkopf &amp; H&auml;rtel 1877-1883.
!!!YOY: 1878
!!!YEC: 2018 Craig Stuart Sapp
!!!YEM: Licence: (CC BY-NC-SA 4.0) https://creativecommons.org/licenses/by-nc-sa/4.0
!!!YER: 2018
!!!ENC: Craig Stuart Sapp
!!!END: 2009/10/12
!!!EED: Craig Stuart Sapp
!!!EEV: 2018/06/13
!!!EFL: 3/69
!!!AGN: piano sonata
!!!AFR: 
!!!title: @{OTL}, K 279 (189d), mvmt. @{OMV}
